dist/assets/icons/icon-birthday-hat.svg

<svg width="12" height="14" viewBox="0 0 12 14" fill="none" xmlns="http://www.w3.org/2000/svg">
<path d="M11.0373 7.54712C11.033 7.54367 11.0285 7.54049 11.0237 7.5376L10.9281 7.46945L9.76929 6.64651L8.16095 5.50407L6.89219 4.60346L5.27482 3.4537L3.98875 2.54062L2.92556 1.78657L1.55516 0.812679L0.410645 0L0.4626 2.0687L0.518323 4.28176L0.568771 6.32188L0.619218 8.3195L0.67268 10.4725L0.720872 12.4071L0.737435 13.0387C0.737435 13.0519 0.737435 13.0644 0.737435 13.0768V13.082C0.739021 13.2149 0.773912 13.3455 0.839083 13.4623C0.979888 13.71 1.25698 13.8697 1.63799 13.9452C2.54155 14.127 4.03167 13.8397 5.67314 13.1509C6.14224 12.9545 6.62414 12.7251 7.10754 12.465C9.99894 10.9085 11.8799 8.83246 11.3084 7.82779C11.2426 7.71429 11.1496 7.61799 11.0373 7.54712Z" fill="#FF6A51"/>
<path d="M5.2749 3.45384C4.76137 4.55671 3.53554 6.26413 0.619295 8.32037L0.568848 6.32569C1.91356 5.25569 3.06888 3.97832 3.98883 2.54443L5.2749 3.45384Z" fill="#FFB0A7"/>
<path d="M2.92567 1.78639C2.40838 2.50161 1.64562 3.34359 0.516168 4.28158L0.460449 2.06852C0.846647 1.66846 1.21132 1.24923 1.55301 0.8125L2.92567 1.78639Z" fill="#FFB0A7"/>
<path d="M8.15933 5.50316C7.85814 6.12457 7.23468 7.0992 5.9185 8.38599C4.82368 9.45735 3.25073 10.7456 0.993335 12.2295C0.904484 12.2882 0.814125 12.3473 0.722263 12.4069L0.674072 10.4723C1.98725 9.58046 4.7401 7.52056 6.89359 4.60254L8.15933 5.50316Z" fill="#FFB0A7"/>
<path d="M10.9265 7.46893C10.9265 7.46893 10.9266 7.477 10.9228 7.48139C10.907 7.52756 10.8881 7.58105 10.8641 7.64114C10.5583 8.40399 9.47257 10.2792 5.67309 13.1525C4.03162 13.8414 2.54301 14.1286 1.63794 13.9469C3.60493 12.7118 5.43247 11.2781 7.09018 9.66954C7.84846 8.93488 8.56175 8.1575 9.22635 7.34142C9.41007 7.11426 9.59154 6.88196 9.76773 6.646L10.9265 7.46893Z" fill="#FFB0A7"/>
</svg>

<svg width="12" height="14" fill="none" xmlns="http://www.w3.org/2000/svg"><path d="M11.037 7.547a.123.123 0 00-.013-.01l-.096-.068-1.159-.822-1.608-1.143-1.269-.9-1.617-1.15-1.286-.913-1.063-.754-1.37-.974L.41 0l.052 2.069.055 2.213.05 2.04.051 1.997.054 2.153.048 1.935.016.632v.043a.8.8 0 00.102.38c.14.248.418.408.799.483.904.182 2.394-.105 4.035-.794.47-.197.951-.426 1.435-.686 2.89-1.556 4.772-3.633 4.2-4.637a.817.817 0 00-.27-.28z" fill="#FF6A51"/><path d="M5.275 3.454C4.76 4.557 3.535 6.264.619 8.32L.57 6.326a15.602 15.602 0 003.42-3.782l1.286.91zM2.926 1.786c-.518.716-1.28 1.558-2.41 2.496L.46 2.069c.387-.4.751-.82 1.093-1.256l1.373.973zM8.16 5.503c-.302.622-.925 1.596-2.242 2.883-1.094 1.071-2.667 2.36-4.925 3.844l-.27.177-.049-1.935c1.313-.892 4.066-2.951 6.22-5.87l1.265.901zm2.767 1.966s0 .008-.004.012c-.016.047-.035.1-.059.16-.306.763-1.391 2.638-5.19 5.511-1.642.69-3.131.977-4.036.795A33.115 33.115 0 007.09 9.67a26.845 26.845 0 002.136-2.33c.184-.227.366-.459.542-.695l1.159.823z" fill="#FFB0A7"/></svg>
